!!!!SEGMENT: pl-kc--40102-iii-1-saf--002-024_zielenski-mikolaj--communiones-totius-anni-in-festo-s-mariae-magdalenae-feci-iudicium-et-iustitiam.krn
!!!cenid: 16xx:1555
!!!COM: Zieleński, Mikołaj
!!!COM-rismid: pe30013481
!!!CDT:
!!!CNT: Polish
!!!GTL: Communiones totius anni
!!!OTL: In festo S. Mariae Magdalenae/Feci iudicium et iustitiam
!!!OMV: 024
!!!PDT: 1611
!!!AGN:
!!!SMS-siglum: PL-Kc
!!!SMS-shelfmark: 40102 III/1 Saf.
!!!SMS-shelfwork: 002-024 G
!!!SMS-variant:
!!!SMS-altvar:
!!!NIFC-rismid: 990069887
!!!URL-scan: https://cyfrowe.mnk.pl/dlibra/publication/24235/edition/23926/content?ref=desc
!!!ONB-nifc: UWAGA: str. 56. Numer w źródle: 23 poprawione na 28. Uwaga: W xml metrum 2/1 do źródłowego C| i odpowiednio 3/1 do 3/2
!!!key:
**kern	**kern	**kern
*part3	*part2	*part1
*group1	*group1	*group1
*staff3	*staff2	*staff1
*I"	*I"Organo	*I"
*I'	*I'org	*I'
*Iorgan	*Iorgan	*Iorgan
*ICklav	*ICklav	*ICklav
*clefF4	*clefC1	*clefC1
*k[b-]	*k[b-]	*k[b-]
*g:	*g:	*g:
*M2/1	*M2/1	*M2/1
*met(C|)	*met(C|)	*met(C|)
=1	=1	=1
!	!	!LO:TX:b:t=Feci iudicium,& iuſtitiam.
!	!	!LO:TX:a:t=23 In feſto S.Mariae Magdalenae   Tres voces.
1BB-	1b-	1dd
2BB-/	2b-\	2dd\
2F\	2a\	2cc\
=2-	=2-	=2-
1.G	2.g/	2.b-\
.	4a\	4a\
.	2b-\	4g/
.	.	4a\
2GG/	2g/	4b-\
.	.	4g/
=3	=3	=3
2D/	2f#X/	2a\
1BB-	1b-	1dd
2E\	1g\	2b-\
=4-	=4-	=4-
4C/	.	2.ee-X\
4D/	.	.
4E-X\	2.cc\	.
4C/	.	8ff\
.	.	8ee-X\
2G\	.	2dd\
!	!LO:N:acc=#	!
.	8bn\	.
!	!LO:SIC:v:s=8a#\	!
.	8a\	.
2GG/	2b\	2dd\
=5	=5	=5
2C/	1.cc	1cc
2AA/	.	.
2AA/	.	2r
2D/	2dd\	2ff\
=6-	=6-	=6-
2.BB-/	2.dd\	2.ff\
4C/	4cc\	4ee\
2D/	2b-\	2dd\
2E\	4a\	4cc\
.	4g/	4b-\
=7	=7	=7
2F\	2cc\	2a\
1C	1ee-X	2cc\
.	.	2cc\
2D/	2dd\	2.b-\
=8-	=8-	=8-
2E-X\	2cc\	.
.	.	8a\
.	.	8g\
2F\	2cc\	2a\
2BB-/	2b-\	1b-
[2BB-/	[<2dd\	.
=9	=9	=9
2BB-/]	2dd\]	1r
2BB-/	2b-\	.
0F	2cc\	2r
.	2.a\	1ff\
=10-	=10-	=10-
.	.	.
.	4g/	.
.	4a\	2cc\
.	4b-\	.
2r	2cc\	1ee-X
[2C/	[2g/	.
=11	=11	=11
2C/]	2g/]	1r
2AA/	2a\	.
2GG/	2b-\	2r
1G\	1b-\	1dd\
=12-	=12-	=12-
.	.	.
2GG/	2g/	2b-\
2.D/	2f#X/	2a\
.	2dd\	2ff\
4D/	.	.
=13	=13	=13
2AA/	2cc\	2ee\
4AA/	4cc\	4ee\
4BB-/	4b-\	4dd\
1FF	4a\	4cc\
.	4g/	4b-\
.	4f/	4a\
.	4g/	4b-\
=14-	=14-	=14-
2F\	2a\	2cc\
4C/	1cc	1ee-X
4D/	.	.
4E-X\	.	.
4C/	.	.
2G\	2b-\	2dd\
=15	=15	=15
!	!LO:SIC:v:s=2.ee-\	!
1E-X	2.ee\	4cc\
.	.	4b-\
.	.	2.b-\
.	4dd\	.
1F	2cc\	.
.	.	8a\
.	.	8g\
.	2cc\	2a\
=16-	=16-	=16-
2.BB-/	2b-\	2b-\
.	2b-\	2dd\
4BB-/	.	.
2F\	2a\	2cc\
4F\	4a\	4cc\
4D/	4b-\	4dd\
=17	=17	=17
4C/	1cc	1ee-X
4D/	.	.
4E-X\	.	.
4C/	.	.
2G\	2b-\	2dd\
1GG/	1dd\	1b-\
=18-	=18-	=18-
.	.	.
2AA/	2cc\	2a\
2.BB-/	2b-\	2g/
.	4a\	4f/
4C/	4g/	4e/
=19	=19	=19
4D/	4f#X/	4d/
8C/	4g/	4e/
8BB-/	.	.
8AA/	2.a\	2f/
8BB-/	.	.
8C/	.	.
8AA/	.	.
2BB-/	.	2d/
.	8g/	.
.	8f#X/	.
4AA/	2g/	1dd\
4GG/	.	.
=20-	=20-	=20-
1.D	2f#X/	.
.	2.g/	4cc\
.	.	4b-\
.	.	2a\
.	8f#X/	.
.	8e/	.
2D/	2f#/	2a\
=21	=21	=21
1GG	2g/	2g/
.	1b-	1dd
1D	.	.
.	2.a\	2.ff\
=22-	=22-	=22-
2.F\	.	.
.	4a\	4ff\
.	4a\	4cc\
4F\	4a\	4cc\
4C/	2.cc\	2.ee-X\
4C/	.	.
[<2E-X\	.	.
.	8b-\	8dd\
.	8a\	8cc\
*custos:E	*custos:g	*custos:b
!!linebreak:original
=23	=23	=23
2E-\]	4g/	4b-\
.	4a\	4cc\
2BB-/	2b-\	2.dd\
1C	2.g/	.
.	.	8cc\
.	.	8b-\
.	.	2cc\
.	4a\	.
=24-	=24-	=24-
2GG/	2b-\	2dd\
2G\	2g/	2b-\
1E-X	1g	4cc\
.	.	4b-\
.	.	[y2b-\
=25	=25	=25
!	!	!LO:N:xstem:cue
1F	1f	4b-\]
.	.	8a\
.	.	8g\
.	.	2a\
1BB-	1f	2b-\
.	.	2.dd\
=26-	=26-	=26-
2.F\	2.a\	.
.	.	4a\
.	.	2cc\
4C/	4e/	.
2E-X\	2g/	2g/
2BB-/	4d/	4r
.	4g/	4b-\
=27	=27	=27
4r	4b-\	4dd\
4BB-/	4b-\	4dd\
4D/	2a\	2ff\
4D/	.	.
2F\	2a\	2.cc\
4C/	4r	.
!	!	!LO:SIC:v:s=2ee-\
2C/	2cc\	2ee\
=28-	=28-	=28-
.	.	.
!	!	!LO:SIC:v:s=4ee-\
4C/	4cc\	4ee\
2BB-/	2g/	2dd\
2AA/	2a\	2cc\
2AA/	2cc\	2b-\
=29	=29	=29
2GG/	2b-\	1dd
2.F\	4r	.
.	2b-\	.
.	.	4r
4D/	4f/	2ff\
2F\	2a\	.
.	.	4cc\
=30-	=30-	=30-
2C/	2.g/	2ee-X\
4r	.	2b-\
2E-X\	2g/	.
.	.	4r
4BB-/	4d/	2dd\
2D/	2f/	.
.	.	4a\
=31	=31	=31
4AA/	1e	2cc\
4AA/	.	.
4C/	.	2g/
4C/	.	.
1GG	4r	4r
.	4g/	4b-\
.	4b-\	4dd\
.	4b-\	4dd\
=32-	=32-	=32-
4D/	2a\	2ff\
4D/	.	.
4F\	4a\	4cc\
4F\	4a\	4cc\
4C/	2cc\	2ee-X\
4D/	.	.
4E-X\	2cc\	2ee-\
4C/	.	.
=33	=33	=33
4G\	2.b-\	2.dd\
4GG/	.	.
4BB-/	.	.
4C/	8a\	8cc\
.	8g\	8b-\
2D/	2f#X/	2a\
!	!	!LO:TX:t=P:LO:N:vis=2:problem
2.D/	2.dd\	2.ff\
=34-	=34-	=34-
.	.	.
4D/	4dd\	4ff\
4AA/	4cc\	4ee\
2BB-/	2b-\	2dd\
4BB-/	4b-\	4dd\
2C/	4a\	2cc\
.	4g/	.
=35	=35	=35
1.D	4f#X/	2b-\
.	4d/	.
.	2.g/	4a\
.	.	4g/
.	.	2a\
.	8f#X/	.
.	8e/	.
2D/	2f#/	2a\
=36-	=36-	=36-
2GG/	2.g/	2g/
4r	.	2.dd\
2G\	2b-\	.
4G\	4g/	4b-\
2C/	2cc\	2ee-X\
=37	=37	=37
2G\	2b-\	4dd\
.	.	4g/
4r	4r	4b-\
4G\	4g/	4b-\
4E-X\	4g/	1cc
4E-\	4g/	.
2C/	2e-X/	.
=38-	=38-	=38-
2G\	2d/	2dd\
2.E-X\	2.g/	2.ee-X\
4E-\	4g/	4ee-\
2BB-/	4b-\	[<2dd\
.	4a\	.
=39	=39	=39
0C	4g/	2dd\]
.	4f/	.
.	4e-X/	4cc\
!	!	!LO:N:acc=#
.	4d/	4bn\
.	2c/	4cc\
.	.	4g/
.	2.cc\	1ee-X\
=40-	=40-	=40-
1C	.	.
.	4g/	.
.	1cc	2ee-X\
!LO:TX:t=P:LO:N:vis=00:problem	!	!LO:TX:t=P:LO:N:vis=00:problem
0.GG	.	0.dd\l
!	!LO:N:acc=#	!
.	4bn\	.
!	!LO:SIC:v:s=4a#\	!
.	4a\	.
=41-	=41-	=41-
!	!LO:N:acc=#	!
.	0bnl	.
==	==	==
*-	*-	*-
!!!system-decoration: [s1,s2,s3]
!!!RDF**kern: l = terminal long
!!!RDF**kern: > = above
!!!RDF**kern: < = below
!!!AIN: 3 organ
!!!ENC: Katarzyna Serwa
!!!END: 2021-12-24
!!!ENC: Filip Voros
!!!END: 2021-12-19
